X:1
T:Title
%%score { 1 | 2 }
L:1/8
Q:1/4=184
M:3/2
K:G
V:1 treble nm="Grand Piano"
V:2 bass 
V:1
 G4 G4 G4 | E8 G4 | A8 B4 | G12 | B4 B4 B4 | e8 d4 | d8 ^c4 | d12 | B4 B4 B4 | c8 B4 | A8 ^G4 | %11
 A12 | B4 B4 B4 | A8 G4 | G8 F4 | G12 |] %16
V:2
 G,,4 B,,4 G,,4 | C,8 B,,4 | A,,8 G,,4 | C,12 | G,,4 G,4 F,4 | E,8 F,4 | G,4 A,4 A,,4 | D,12 | %8
 G,8 E,4 | A,4 A,,4 B,,4 | C,4 D,4 E,4 | A,,12 | G,,4 G,4 G,,4 | D,4 C,4 B,,4 | C,4 A,,4 D,4 | %15
 G,,12 |] %16

